svg/u1f68b.svg

<svg viewBox="0 0 128 128" xmlns="http://www.w3.org/2000/svg">
  <g>
    <line fill="none" stroke="#607D8B" stroke-width="3" stroke-miterlimit="10" x1="4" x2="124" y1="5.5" y2="5.5"/>
    <rect height="3.99" fill="#607D8B" width="13.81" x="40.73" y="30.32"/>
    <path d="M59.63,31.48h-24c-1,0-1.81-0.81-1.81-1.81V29.5c0-1,0.81-1.81,1.81-1.81h24 c1,0,1.81,0.81,1.81,1.81v0.17C61.44,30.67,60.63,31.48,59.63,31.48z" fill="#82AEC0"/>
    <path d="M57.74,30.27" fill="none" stroke="#82AEC0" stroke-width="2" stroke-miterlimit="10"/>
    <path d="M48.87,29.37l11.06-10.61 c0.42-0.41,0.43-1.09,0.02-1.51L46.62,5.65" fill="none" stroke="#82AEC0" stroke-width="3" stroke-miterlimit="10"/>
    <polygon points="45.65,6.79 50.38,10.94 52.58,8.89 47.6,4.55 " fill="#607D8B"/>
    <polygon points="57.06,15.62 57.06,20.19 59.28,17.9 " fill="#82AEC0"/>
    <path d="M46.39,29.37L35.33,18.76 c-0.42-0.41-0.43-1.09-0.02-1.51l13.33-11.6" fill="none" stroke="#82AEC0" stroke-width="3" stroke-miterlimit="10"/>
    <polygon points="49.62,6.79 44.89,10.94 42.69,8.89 47.66,4.55 " fill="#607D8B"/>
    <polygon points="38.2,15.62 38.2,20.19 35.99,17.9 " fill="#82AEC0"/>
    <path d="M50.12,8.71h-4.97c-0.61,0-1.1-0.49-1.1-1.1V3.69c0-0.61,0.49-1.1,1.1-1.1h4.97 c0.61,0,1.1,0.49,1.1,1.1v3.92C51.21,8.21,50.72,8.71,50.12,8.71z" fill="#82AEC0"/>
    <circle cx="37.39" cy="115.03" r="8.97" fill="#455A64"/>
    <path d="M39.58,116.4c-0.52,0.64-1.3,1.07-2.2,1.07c-0.89,0-1.68-0.42-2.2-1.07h-3.58 c0.62,2.63,2.96,4.59,5.78,4.59c2.82,0,5.16-1.96,5.78-4.59H39.58z" fill="#607D8B"/>
    <circle cx="90.61" cy="115.03" r="8.97" fill="#455A64"/>
    <path d="M92.81,116.4c-0.52,0.64-1.3,1.07-2.2,1.07c-0.89,0-1.68-0.42-2.2-1.07h-3.58 c0.62,2.63,2.96,4.59,5.78,4.59c2.82,0,5.16-1.96,5.78-4.59H92.81z" fill="#607D8B"/>
    <polygon points="78.13,119.53 50.3,119.53 46.74,111.86 81.26,111.86 " fill="#455A64"/>
    <polygon points="6.32,48.36 6.32,74.58 121.68,74.58 121.68,48.95 " fill="#EEEEEE"/>
    <path d="M7,45.62c-0.43,1.27-0.68,2.81-0.68,4.68h115.36c0-1.79-0.25-3.41-0.68-4.68H7z" fill="#9E9E9E"/>
    <path d="M6.64,46.88h114.72c-1.27-5.61-6.27-12.8-12.26-12.8H18.9C12.91,34.08,7.91,41.28,6.64,46.88z" fill="#BDBDBD"/>
    <polygon points="124,108.84 121.68,102.96 121.68,70.43 6.32,70.43 6.32,102.96 4,108.84 " fill="#FFCA28"/>
    <rect height="5.36" fill="#82AEC0" width="120" x="4" y="108.84"/>
    <rect height="15.56" fill="#BAE2FD" width="14.6" x="23.39" y="65.84"/>
    <path d="M36.98,82.4H24.39c-1.11,0-2-0.9-2-2V66.84c0-1.11,0.9-2,2-2h12.6c1.11,0,2,0.9,2,2v13.55 C38.99,81.5,38.09,82.4,36.98,82.4z M23.89,67.65l0,11.93c0,0.45,0.36,0.81,0.81,0.81l11.98,0c0.45,0,0.81-0.36,0.81-0.81l0-11.93 c0-0.45-0.36-0.81-0.81-0.81l-11.98,0C24.25,66.84,23.89,67.2,23.89,67.65z" fill="#37474F"/>
    <line fill="none" stroke="#37474F" stroke-miterlimit="10" x1="22.89" x2="38.12" y1="70.8" y2="70.8"/>
    <rect height="15.56" fill="#BAE2FD" width="14.6" x="90.01" y="65.84"/>
    <path d="M103.61,82.4H91.02c-1.11,0-2-0.9-2-2V66.84c0-1.11,0.9-2,2-2h12.6c1.11,0,2,0.9,2,2v13.55 C105.61,81.5,104.72,82.4,103.61,82.4z M90.52,67.65l0,11.93c0,0.45,0.36,0.81,0.81,0.81l11.98,0c0.45,0,0.81-0.36,0.81-0.81 l0-11.93c0-0.45-0.36-0.81-0.81-0.81l-11.98,0C90.88,66.84,90.52,67.2,90.52,67.65z" fill="#37474F"/>
    <line fill="none" stroke="#37474F" stroke-miterlimit="10" x1="89.51" x2="104.75" y1="70.8" y2="70.8"/>
    <g>
      <path d="M47.86,107.86c-1.61,0-2.92-1.4-2.92-3.13V65.5c0-2.02,1.53-3.66,3.42-3.66h32.12 c1.42,0,2.57,1.24,2.57,2.76v40.5c0,1.52-1.15,2.76-2.57,2.76H47.86z" fill="#FFCA28"/>
      <path d="M80.49,62.84c0.86,0,1.57,0.79,1.57,1.76v40.5c0,0.97-0.7,1.76-1.57,1.76H47.86 c-1.06,0-1.92-0.96-1.92-2.13V65.5c0-1.47,1.08-2.66,2.42-2.66H80.49 M80.49,60.84H48.36c-2.44,0-4.42,2.09-4.42,4.66v39.23 c0,2.28,1.75,4.13,3.92,4.13h32.62c1.97,0,3.57-1.68,3.57-3.76V64.6C84.05,62.52,82.46,60.84,80.49,60.84L80.49,60.84z" fill="#9E740B"/>
    </g>
    <path d="M77.12,64.84h-7.49c-1.47,0-2.66,1.19-2.66,2.66v17.59c0,1.47,1.19,2.66,2.66,2.66h7.49 c1.47,0,2.66-1.19,2.66-2.66V67.5C79.78,66.03,78.59,64.84,77.12,64.84z" fill="#37474F"/>
    <path d="M76.57,67.16H70.4c-1.1,0-2,0.9-2,2v14.21c0,1.1,0.9,2,2,2h6.17c1.1,0,2-0.9,2-2V69.16 C78.57,68.06,77.68,67.16,76.57,67.16z" fill="#BAE2FD"/>
    <path d="M58.24,64.84h-7.49c-1.47,0-2.66,1.19-2.66,2.66v17.59c0,1.47,1.19,2.66,2.66,2.66h7.49 c1.47,0,2.66-1.19,2.66-2.66V67.5C60.89,66.03,59.7,64.84,58.24,64.84z" fill="#37474F"/>
    <path d="M57.69,67.16h-6.17c-1.1,0-2,0.9-2,2v14.21c0,1.1,0.9,2,2,2h6.17c1.1,0,2-0.9,2-2V69.16 C59.69,68.06,58.79,67.16,57.69,67.16z" fill="#BAE2FD"/>
    <line fill="none" stroke="#9E740B" stroke-width="2" stroke-miterlimit="10" x1="64" x2="64" y1="61.8" y2="107.4"/>
    <rect height="20.56" fill="#BAE2FD" width="10.25" x="6.32" y="65.84"/>
    <path d="M14.51,85.39c0.73,0,1.33-0.6,1.33-1.33l0-15.89c0-0.73-0.6-1.33-1.33-1.33l-8.18,0v-2h9.11 c1.11,0,2,0.9,2,2v18.55c0,1.11-0.9,2-2,2H6.32v-2L14.51,85.39z" fill="#37474F"/>
    <rect height="20.56" fill="#BAE2FD" width="10.11" x="111.57" y="65.84"/>
    <path d="M113.49,85.39c-0.73,0-1.33-0.6-1.33-1.33l0-15.89c0-0.73,0.6-1.33,1.33-1.33l8.18,0v-2h-9.11 c-1.11,0-2,0.9-2,2v18.55c0,1.11,0.9,2,2,2h9.11v-2L113.49,85.39z" fill="#37474F"/>
  </g>
</svg>

<svg viewBox="0 0 128 128" xmlns="http://www.w3.org/2000/svg">
  <defs/>
  <path d="M4,4 L124,4 L124,7 L4,7 L4,4 Z" fill="#607D8B"/>
  <path d="M40.73,30.32 L54.54,30.32 L54.54,34.31 L40.73,34.31 L40.73,30.32 Z" fill="#607D8B"/>
  <path d="M59.63,31.48 L35.63,31.48 C34.63,31.48 33.82,30.67 33.82,29.67 L33.82,29.5 C33.82,28.5 34.63,27.69 35.63,27.69 L59.63,27.69 C60.63,27.69 61.44,28.5 61.44,29.5 L61.44,29.67 C61.44,30.67 60.63,31.48 59.63,31.48 Z" fill="#82AEC0"/>
  <path d="M47.832,28.288 L58.542,18.013 L45.635,6.782 L47.605,4.518 L60.981,16.159 L61.023,16.202 Q61.914,17.115 61.906,18.019 Q61.898,18.935 60.968,19.842 L49.908,30.452 Z" fill="#82AEC0"/>
  <path d="M45.65,6.79 L50.38,10.94 L52.58,8.89 L47.6,4.55 Z" fill="#607D8B"/>
  <path d="M57.06,15.62 L57.06,20.19 L59.28,17.9 Z" fill="#82AEC0"/>
  <path d="M45.352,30.452 L34.292,19.842 Q33.523,19.093 33.509,18.029 Q33.494,16.963 34.237,16.202 L34.279,16.159 L47.655,4.518 L49.625,6.782 L36.718,18.013 L47.428,28.288 Z" fill="#82AEC0"/>
  <path d="M49.62,6.79 L44.89,10.94 L42.69,8.89 L47.66,4.55 Z" fill="#607D8B"/>
  <path d="M38.2,15.62 L38.2,20.19 L35.99,17.9 Z" fill="#82AEC0"/>
  <path d="M50.12,8.71 L45.15,8.71 C44.54,8.71 44.05,8.22 44.05,7.61 L44.05,3.69 C44.05,3.08 44.54,2.59 45.15,2.59 L50.12,2.59 C50.73,2.59 51.22,3.08 51.22,3.69 L51.22,7.61 C51.21,8.21 50.72,8.71 50.12,8.71 Z" fill="#82AEC0"/>
  <path d="M46.36,115.03 A8.97 8.97 0 1 1 28.42,115.03 A8.97 8.97 0 1 1 46.36,115.03 Z" fill="#455A64"/>
  <path d="M39.58,116.4 C39.06,117.04 38.28,117.47 37.38,117.47 C36.49,117.47 35.7,117.05 35.18,116.4 L31.6,116.4 C32.22,119.03 34.56,120.99 37.38,120.99 C40.2,120.99 42.54,119.03 43.16,116.4 L39.58,116.4 Z" fill="#607D8B"/>
  <path d="M99.58,115.03 A8.97 8.97 0 1 1 81.64,115.03 A8.97 8.97 0 1 1 99.58,115.03 Z" fill="#455A64"/>
  <path d="M92.81,116.4 C92.29,117.04 91.51,117.47 90.61,117.47 C89.72,117.47 88.93,117.05 88.41,116.4 L84.83,116.4 C85.45,119.03 87.79,120.99 90.61,120.99 C93.43,120.99 95.77,119.03 96.39,116.4 L92.81,116.4 Z" fill="#607D8B"/>
  <path d="M78.13,119.53 L50.3,119.53 L46.74,111.86 L81.26,111.86 Z" fill="#455A64"/>
  <path d="M6.32,48.36 L6.32,74.58 L121.68,74.58 L121.68,48.95 Z" fill="#EEEEEE"/>
  <path d="M7,45.62 C6.57,46.89 6.32,48.43 6.32,50.3 L121.68,50.3 C121.68,48.51 121.43,46.89 121,45.62 L7,45.62 Z" fill="#9E9E9E"/>
  <path d="M6.64,46.88 L121.36,46.88 C120.09,41.27 115.09,34.08 109.1,34.08 L18.9,34.08 C12.91,34.08 7.91,41.28 6.64,46.88 Z" fill="#BDBDBD"/>
  <path d="M124,108.84 L121.68,102.96 L121.68,70.43 L6.32,70.43 L6.32,102.96 L4,108.84 Z" fill="#FFCA28"/>
  <path d="M4,108.84 L124,108.84 L124,114.2 L4,114.2 L4,108.84 Z" fill="#82AEC0"/>
  <path d="M23.39,65.84 L37.99,65.84 L37.99,81.4 L23.39,81.4 L23.39,65.84 Z" fill="#BAE2FD"/>
  <path d="M36.98,82.4 L24.39,82.4 C23.28,82.4 22.39,81.5 22.39,80.4 L22.39,66.84 C22.39,65.73 23.29,64.84 24.39,64.84 L36.99,64.84 C38.1,64.84 38.99,65.74 38.99,66.84 L38.99,80.39 C38.99,81.5 38.09,82.4 36.98,82.4 Z M23.89,67.65 L23.89,79.58 C23.89,80.03 24.25,80.39 24.7,80.39 L36.68,80.39 C37.13,80.39 37.49,80.03 37.49,79.58 L37.49,67.65 C37.49,67.2 37.13,66.84 36.68,66.84 L24.7,66.84 C24.25,66.84 23.89,67.2 23.89,67.65 Z" fill="#37474F"/>
  <path d="M22.89,70.3 L38.12,70.3 L38.12,71.3 L22.89,71.3 L22.89,70.3 Z" fill="#37474F"/>
  <path d="M90.01,65.84 L104.61,65.84 L104.61,81.4 L90.01,81.4 L90.01,65.84 Z" fill="#BAE2FD"/>
  <path d="M103.61,82.4 L91.02,82.4 C89.91,82.4 89.02,81.5 89.02,80.4 L89.02,66.84 C89.02,65.73 89.92,64.84 91.02,64.84 L103.62,64.84 C104.73,64.84 105.62,65.74 105.62,66.84 L105.62,80.39 C105.61,81.5 104.72,82.4 103.61,82.4 Z M90.52,67.65 L90.52,79.58 C90.52,80.03 90.88,80.39 91.33,80.39 L103.31,80.39 C103.76,80.39 104.12,80.03 104.12,79.58 L104.12,67.65 C104.12,67.2 103.76,66.84 103.31,66.84 L91.33,66.84 C90.88,66.84 90.52,67.2 90.52,67.65 Z" fill="#37474F"/>
  <path d="M89.51,70.3 L104.75,70.3 L104.75,71.3 L89.51,71.3 L89.51,70.3 Z" fill="#37474F"/>
  <path d="M47.86,107.86 C46.25,107.86 44.94,106.46 44.94,104.73 L44.94,65.5 C44.94,63.48 46.47,61.84 48.36,61.84 L80.48,61.84 C81.9,61.84 83.05,63.08 83.05,64.6 L83.05,105.1 C83.05,106.62 81.9,107.86 80.48,107.86 L47.86,107.86 Z" fill="#FFCA28"/>
  <path d="M80.49,62.84 C81.35,62.84 82.06,63.63 82.06,64.6 L82.06,105.1 C82.06,106.07 81.36,106.86 80.49,106.86 L47.86,106.86 C46.8,106.86 45.94,105.9 45.94,104.73 L45.94,65.5 C45.94,64.03 47.02,62.84 48.36,62.84 L80.49,62.84 M80.49,60.84 L48.36,60.84 C45.92,60.84 43.94,62.93 43.94,65.5 L43.94,104.73 C43.94,107.01 45.69,108.86 47.86,108.86 L80.48,108.86 C82.45,108.86 84.05,107.18 84.05,105.1 L84.05,64.6 C84.05,62.52 82.46,60.84 80.49,60.84 L80.49,60.84 Z" fill="#9E740B"/>
  <path d="M77.12,64.84 L69.63,64.84 C68.16,64.84 66.97,66.03 66.97,67.5 L66.97,85.09 C66.97,86.56 68.16,87.75 69.63,87.75 L77.12,87.75 C78.59,87.75 79.78,86.56 79.78,85.09 L79.78,67.5 C79.78,66.03 78.59,64.84 77.12,64.84 Z" fill="#37474F"/>
  <path d="M76.57,67.16 L70.4,67.16 C69.3,67.16 68.4,68.06 68.4,69.16 L68.4,83.37 C68.4,84.47 69.3,85.37 70.4,85.37 L76.57,85.37 C77.67,85.37 78.57,84.47 78.57,83.37 L78.57,69.16 C78.57,68.06 77.68,67.16 76.57,67.16 Z" fill="#BAE2FD"/>
  <path d="M58.24,64.84 L50.75,64.84 C49.28,64.84 48.09,66.03 48.09,67.5 L48.09,85.09 C48.09,86.56 49.28,87.75 50.75,87.75 L58.24,87.75 C59.71,87.75 60.9,86.56 60.9,85.09 L60.9,67.5 C60.89,66.03 59.7,64.84 58.24,64.84 Z" fill="#37474F"/>
  <path d="M57.69,67.16 L51.52,67.16 C50.42,67.16 49.52,68.06 49.52,69.16 L49.52,83.37 C49.52,84.47 50.42,85.37 51.52,85.37 L57.69,85.37 C58.79,85.37 59.69,84.47 59.69,83.37 L59.69,69.16 C59.69,68.06 58.79,67.16 57.69,67.16 Z" fill="#BAE2FD"/>
  <path d="M65,61.8 L65,107.4 L63,107.4 L63,61.8 L65,61.8 Z" fill="#9E740B"/>
  <path d="M6.32,65.84 L16.57,65.84 L16.57,86.4 L6.32,86.4 L6.32,65.84 Z" fill="#BAE2FD"/>
  <path d="M14.51,85.39 C15.24,85.39 15.84,84.79 15.84,84.06 L15.84,68.17 C15.84,67.44 15.24,66.84 14.51,66.84 L6.33,66.84 L6.33,64.84 L15.44,64.84 C16.55,64.84 17.44,65.74 17.44,66.84 L17.44,85.39 C17.44,86.5 16.54,87.39 15.44,87.39 L6.32,87.39 L6.32,85.39 L14.51,85.39 Z" fill="#37474F"/>
  <path d="M111.57,65.84 L121.68,65.84 L121.68,86.4 L111.57,86.4 L111.57,65.84 Z" fill="#BAE2FD"/>
  <path d="M113.49,85.39 C112.76,85.39 112.16,84.79 112.16,84.06 L112.16,68.17 C112.16,67.44 112.76,66.84 113.49,66.84 L121.67,66.84 L121.67,64.84 L112.56,64.84 C111.45,64.84 110.56,65.74 110.56,66.84 L110.56,85.39 C110.56,86.5 111.46,87.39 112.56,87.39 L121.67,87.39 L121.67,85.39 L113.49,85.39 Z" fill="#37474F"/>
</svg>
